X: 31657
T: Parnell's March
R: jig
M: 6/8
K: Gmajor
|:d2 c|BGD BGD d3- d2 c|BGD BGD d3- d2 c|
B3 BAB ded dcB|A2 d d^cd A2 d d^cd|
BGD BGD d3 dcB|cBc cde gag gfe|
d2 B GAB c2 A F2 G|A2 G GAF G3:|
|:g2 f|ecc cdB c2 z gfe|d2 d ded B3 B2 c|
d3 d^cd e2 e dcB|A2 d d^cd A2 d d^cd|
BGD BGD d3 dcB|cBc cde gag gfe|
d2 B GAB c2 A F2 G|A2 G GAF G3:|

